!!!OTL: Qongqothwane
!!!XEN: The Click Song
!!!CNT: African -- sub-Saharan -- Xhosa
**kern
*k[f#c#]
*M4/4
*MM100
8ff#
8dd
=1
2.dd
4ff#
=2
8dd
[8dd
4dd]
4r
4ff#
=3
2.ee
8dd
8b
=4
2b
4r
8ee
8b
=5
2.dd
4ee
=6
8b
[8b
4b]
4r
4ee
=7
2.dd
8b
8a
=8
2a
4r
!! Repeated from beginning.
8ff#
8dd
=9
2.dd
4ff#
=10
8dd
[8dd
4dd]
4r
4ff#
=11
2.ee
8dd
8b
=12
2b
4r
8ee
8b
=13
2.dd
4ee
=14
8b
[8b
4b]
4r
4ee
=15
2.dd
8b
8a
=16
2a
4r
!! Repeated section.
4r
=17
4r
8ff#
8ff#
8ff#
8ff#
8ff#
8dd
=18
4ff#
8dd
8aa
8aa
[8ff#
4ff#]
=19
2.ee
8dd
8b
=20
2b
2r
=21
4r
8ee
8ee
8ee
8ee
8ee
8b
=22
4ee
8b
8ee
8ff#
8b
[4b
=23
2.dd]
8b
8a
=24
2a
4r
4r
=25
4r
8ff#
8ff#
8ff#
8ff#
8ff#
8dd
=26
4ff#
8dd
8aa
8aa
[8ff#
4ff#]
=27
2.ee
8dd
8b
=28
2b
2r
=29
4r
8ee
8ee
8ee
8ee
8ee
8b
=30
4ee
8b
8ee
8ff#
[8b
4b]
=31
2.dd
8b
8a
=32
2a
4r
==
*-
!!!OPR: Miriam Makeba, "The World of African Song"
!!!PPP: Chicago
!!!PPR: Quadrangle Press (12 East Delaware Place)
!!!PDT: 1971///
!!!PPG: 29
!!!ENC: David Huron
!!!EMD: 1998/9/29/ Paul von Hippel updated this file in the following ways:
!!!EMD:  (1) changed the representation of slurs from curly braces to parentheses 
!!!EMD:  (2) changed freeform comments into reference records and tandem interpretations
!!!EMD:  (3) changed final barline from triple (===) to double (==)
!!!EMD:  (4) added key signature from printed source
!!!EEV: Version 2.0
